storage/app/icons/phosphoricons/bold/folder-open-bold.svg

<svg xmlns="http://www.w3.org/2000/svg" fill="currentColor" viewBox="0 0 256 256"><path d="M248.23 112.31A20 20 0 0 0 232 104h-12V88a20 20 0 0 0-20-20h-68l-26.66-20a20.12 20.12 0 0 0-12-4H40a20 20 0 0 0-20 20v144a12 12 0 0 0 12 12h179.1a12 12 0 0 0 11.33-8l28.49-81.47.06-.17a20 20 0 0 0-2.75-18.05M92 68l28.8 21.6A12 12 0 0 0 128 92h68v12H69.77a20 20 0 0 0-18.94 13.58L44 137.15V68Zm110.59 128H48.89l23.72-68h153.76Z"/></svg>

<svg xmlns="http://www.w3.org/2000/svg" viewBox="0 0 256 256" fill="currentColor"><path d="M248.23,112.31A20,20,0,0,0,232,104H220V88a20,20,0,0,0-20-20H132L105.34,48a20.12,20.12,0,0,0-12-4H40A20,20,0,0,0,20,64V208a12,12,0,0,0,12,12H211.1a12,12,0,0,0,11.33-8l28.49-81.47.06-.17A20,20,0,0,0,248.23,112.31ZM92,68l28.8,21.6A12,12,0,0,0,128,92h68v12H69.77a20,20,0,0,0-18.94,13.58L44,137.15V68ZM202.59,196H48.89l23.72-68H226.37Z"/></svg>
